CodeEditor2VerilogPlugin/CodeEditor2VerilogPlugin/Assets/Icons/verilogDocument.svg

<?xml version="1.0" encoding="UTF-8" standalone="no"?>
<!--?xml version="1.0" encoding="utf-8"?-->

<!-- Generator: Adobe Illustrator 18.0.0, SVG Export Plug-In . SVG Version: 6.00 Build 0)  -->

<svg
   version="1.1"
   id="_x32_"
   x="0px"
   y="0px"
   viewBox="0 0 512 512"
   style="width: 256px; height: 256px; opacity: 1;"
   xml:space="preserve"
   sodipodi:docname="verilogDocument.svg"
   inkscape:version="1.3.2 (091e20e, 2023-11-25, custom)"
   xmlns:inkscape="http://www.inkscape.org/namespaces/inkscape"
   xmlns:sodipodi="http://sodipodi.sourceforge.net/DTD/sodipodi-0.dtd"
   xmlns="http://www.w3.org/2000/svg"
   xmlns:svg="http://www.w3.org/2000/svg"><defs
   id="defs1" /><sodipodi:namedview
   id="namedview1"
   pagecolor="#ffffff"
   bordercolor="#000000"
   borderopacity="0.25"
   inkscape:showpageshadow="2"
   inkscape:pageopacity="0.0"
   inkscape:pagecheckerboard="0"
   inkscape:deskcolor="#d1d1d1"
   inkscape:zoom="1.0947266"
   inkscape:cx="559.04369"
   inkscape:cy="371.32559"
   inkscape:window-width="2256"
   inkscape:window-height="1398"
   inkscape:window-x="-11"
   inkscape:window-y="-11"
   inkscape:window-maximized="1"
   inkscape:current-layer="_x32_" />
<style
   type="text/css"
   id="style1">
	.st0{fill:#4B4B4B;}
</style>
<path
   d="M 133.44141,0.9140625 C 119.79516,0.77299947 100.73396,8.8080508 91.083984,18.457031 L 17.818359,91.722656 C 8.168379,101.37264 0.27539063,120.4331 0.27539063,134.08008 v 354.02148 c 0,13.64698 11.16357437,24.8125 24.81054637,24.8125 H 313.70312 l 114.48047,3.65235 h 58.73047 c 13.64698,0 24.8125,-11.16357 24.8125,-24.81055 V 433.02344 383.40039 29.378906 C 511.72556,15.731934 500.56031,4.7074693 486.91406,4.5664062 Z M 54.058594,98.169922 H 148.82617 L 262.91016,376.21094 379.54687,98.169922 h 74.71875 L 298.63086,461.00586 h -91.12305 z"
   style="fill:#4b4b4b"
   id="path1" />
</svg>

<?xml version="1.0" encoding="UTF-8" standalone="no"?><!DOCTYPE svg PUBLIC "-//W3C//DTD SVG 1.1//EN" "http://www.w3.org/Graphics/SVG/1.1/DTD/svg11.dtd"><svg width="100%" height="100%" viewBox="0 0 512 512" version="1.1" xmlns="http://www.w3.org/2000/svg" xmlns:xlink="http://www.w3.org/1999/xlink" xml:space="preserve" xmlns:serif="http://www.serif.com/" style="fill-rule:evenodd;clip-rule:evenodd;stroke-linejoin:round;stroke-miterlimit:2;"><path id="path1" d="M133.441,0.914c-13.646,-0.141 -32.707,7.894 -42.357,17.543l-73.266,73.266c-9.65,9.65 -17.543,28.71 -17.543,42.357l-0,354.021c0,13.647 11.164,24.813 24.811,24.813l288.617,0l114.48,3.652l58.73,0c13.647,0 24.812,-11.164 24.812,-24.811l0,-462.377c-0.001,-13.647 -11.166,-24.671 -24.812,-24.812l-353.473,-3.652Zm-79.383,97.256l94.768,0l114.084,278.041l116.637,-278.041l74.719,0l-155.635,362.836l-91.123,0l-153.449,-362.836Z" style="fill:#4b4b4b;fill-rule:nonzero;"/></svg>
